svg/fluentui-system-icons/ic_fluent_align_top_16_filled.svg

<svg width="16" height="16" viewBox="0 0 16 16" fill="none" xmlns="http://www.w3.org/2000/svg">
<path d="M1.5 2C1.22386 2 1 2.22386 1 2.5C1 2.77614 1.22386 3 1.5 3H14.5C14.7761 3 15 2.77614 15 2.5C15 2.22386 14.7761 2 14.5 2L1.5 2ZM2 5.75C2 4.7835 2.7835 4 3.75 4L5.25 4C6.2165 4 7 4.7835 7 5.75L7 12.25C7 13.2165 6.2165 14 5.25 14H3.75C2.7835 14 2 13.2165 2 12.25L2 5.75ZM9 5.75C9 4.7835 9.7835 4 10.75 4L12.25 4C13.2165 4 14 4.7835 14 5.75V10.25C14 11.2165 13.2165 12 12.25 12H10.75C9.7835 12 9 11.2165 9 10.25L9 5.75Z" fill="#212121"/>
</svg>

<svg xmlns="http://www.w3.org/2000/svg" width="16" height="16"><path d="M1.5 2a.5.5 0 0 0 0 1h13a.5.5 0 0 0 0-1h-13ZM2 5.75C2 4.784 2.784 4 3.75 4h1.5C6.216 4 7 4.784 7 5.75v6.5A1.75 1.75 0 0 1 5.25 14h-1.5A1.75 1.75 0 0 1 2 12.25v-6.5Zm7 0C9 4.784 9.784 4 10.75 4h1.5c.966 0 1.75.784 1.75 1.75v4.5A1.75 1.75 0 0 1 12.25 12h-1.5A1.75 1.75 0 0 1 9 10.25v-4.5Z"/></svg>
